Adwaita++-Dark/apps/16/libro.svg

<svg height="16" viewBox="0 0 16 16" width="16" xmlns="http://www.w3.org/2000/svg" xmlns:xlink="http://www.w3.org/1999/xlink">
  <clipPath id="_clipPath_E9fz9JqG8h392omLElA9N6xzJXeZY15g">
    <path d="m0 0h16v16h-16z"/>
  </clipPath>
  <g clip-path="url(#_clipPath_E9fz9JqG8h392omLElA9N6xzJXeZY15g)">
    <path d="m0 0h16v16h-16z" fill="none"/>
    <path d="m7.626.616c-.171.005-.333.082-.444.212l-6.39 7.125c-.133.152-.461.707-.618 1.428-.119.341-.178.7-.174 1.062 0 1.916 1.603 2.683 1.603 2.683.024.014.05.027.077.038l7.413 2.202c.242.069.501-.015.656-.213l6.043-7.278c.15-.185.18-.441.077-.657 0 0-.234-.54.02-1.158.084-.205.053-.439-.083-.615-.135-.176-.354-.266-.574-.234-.218.034-.402.181-.483.386-.316.774-.224 1.363-.116 1.738l-5.578 6.718-6.99-2.066-.039-.019c-.114-.043-.79-.348-.79-1.525 0-.464.099-.71.193-.85.075-.121.191-.21.327-.251.136-.043.291-.043.406-.039h.02l6.448 1.854c.251.062.515-.029.676-.232l6.543-7.548c.142-.174.191-.406.116-.618-.076-.215-.259-.376-.483-.425l-7.682-1.718c-.058-.012-.116-.002-.173 0zm-.174 2.452c.068-.002.13.005.193.019l4.595 1.12c.251.06.347.225.212.386l-.502.599c-.137.161-.461.234-.714.173l-4.575-1.119c-.253-.06-.347-.246-.213-.406l.484-.578c.101-.121.318-.189.521-.194z" fill="#e6ddff"/>
  </g>
</svg>

<svg xmlns="http://www.w3.org/2000/svg" style="isolation:isolate" width="16" height="16" viewBox="0 0 16 16">
 <defs>
  <style id="current-color-scheme" type="text/css">
   .ColorScheme-Text { color:#E6DDFF; } .ColorScheme-Highlight { color:#5294e2; }
  </style>
  <linearGradient id="arrongin" x1="0%" x2="0%" y1="0%" y2="100%">
   <stop offset="0%" style="stop-color:#dd9b44"/>
   <stop offset="100%" style="stop-color:#ad6c16"/>
  </linearGradient>
  <linearGradient id="aurora" x1="0%" x2="0%" y1="0%" y2="100%">
   <stop offset="0%" style="stop-color:#09D4DF"/>
   <stop offset="100%" style="stop-color:#9269F4"/>
  </linearGradient>
  <linearGradient id="fitdance" x1="0%" x2="0%" y1="0%" y2="100%">
   <stop offset="0%" style="stop-color:#1AD6AB"/>
   <stop offset="100%" style="stop-color:#329DB6"/>
  </linearGradient>
  <linearGradient id="oomox" x1="0%" x2="0%" y1="0%" y2="100%">
   <stop offset="0%" style="stop-color:#efefe7"/>
   <stop offset="100%" style="stop-color:#8f8f8b"/>
  </linearGradient>
  <linearGradient id="rainblue" x1="0%" x2="0%" y1="0%" y2="100%">
   <stop offset="0%" style="stop-color:#00F260"/>
   <stop offset="100%" style="stop-color:#0575E6"/>
  </linearGradient>
  <linearGradient id="sunrise" x1="0%" x2="0%" y1="0%" y2="100%">
   <stop offset="0%" style="stop-color:#FF8501"/>
   <stop offset="100%" style="stop-color:#FFCB01"/>
  </linearGradient>
  <linearGradient id="telinkrin" x1="0%" x2="0%" y1="0%" y2="100%">
   <stop offset="0%" style="stop-color:#b2ced6"/>
   <stop offset="100%" style="stop-color:#6da5b7"/>
  </linearGradient>
  <linearGradient id="60spsycho" x1="0%" x2="0%" y1="0%" y2="100%">
   <stop offset="0%" style="stop-color:#df5940"/>
   <stop offset="25%" style="stop-color:#d8d15f"/>
   <stop offset="50%" style="stop-color:#e9882a"/>
   <stop offset="100%" style="stop-color:#279362"/>
  </linearGradient>
  <linearGradient id="90ssummer" x1="0%" x2="0%" y1="0%" y2="100%">
   <stop offset="0%" style="stop-color:#f618c7"/>
   <stop offset="20%" style="stop-color:#94ffab"/>
   <stop offset="50%" style="stop-color:#fbfd54"/>
   <stop offset="100%" style="stop-color:#0f83ae"/>
  </linearGradient>
  <clipPath id="_clipPath_E9fz9JqG8h392omLElA9N6xzJXeZY15g">
   <rect width="16" height="16"/>
  </clipPath>
 </defs>
 <g clip-path="url(#_clipPath_E9fz9JqG8h392omLElA9N6xzJXeZY15g)">
  <rect fill-opacity="0" width="16" height="16"/>
  <path style="fill:currentColor" class="ColorScheme-Text" d="M 7.626 0.616 C 7.455 0.621 7.293 0.698 7.182 0.828 L 0.792 7.953 C 0.659 8.105 0.331 8.66 0.174 9.381 C 0.055 9.722 -0.004 10.081 0 10.443 C 0 12.359 1.603 13.126 1.603 13.126 C 1.627 13.14 1.653 13.153 1.68 13.164 L 9.093 15.366 C 9.335 15.435 9.594 15.351 9.749 15.153 L 15.792 7.875 C 15.942 7.69 15.972 7.434 15.869 7.218 C 15.869 7.218 15.635 6.678 15.889 6.06 C 15.973 5.855 15.942 5.621 15.806 5.445 C 15.671 5.269 15.452 5.179 15.232 5.211 C 15.014 5.245 14.83 5.392 14.749 5.597 C 14.433 6.371 14.525 6.96 14.633 7.335 L 9.055 14.053 L 2.065 11.987 L 2.026 11.968 C 1.912 11.925 1.236 11.62 1.236 10.443 C 1.236 9.979 1.335 9.733 1.429 9.593 C 1.504 9.472 1.62 9.383 1.756 9.342 C 1.892 9.299 2.047 9.299 2.162 9.303 L 2.182 9.303 L 8.63 11.157 C 8.881 11.219 9.145 11.128 9.306 10.925 L 15.849 3.377 C 15.991 3.203 16.04 2.971 15.965 2.759 C 15.889 2.544 15.706 2.383 15.482 2.334 L 7.8 0.616 C 7.742 0.604 7.684 0.614 7.627 0.616 L 7.626 0.616 Z M 7.452 3.068 C 7.52 3.066 7.582 3.073 7.645 3.087 L 12.24 4.207 C 12.491 4.267 12.587 4.432 12.452 4.593 L 11.95 5.192 C 11.813 5.353 11.489 5.426 11.236 5.365 L 6.661 4.246 C 6.408 4.186 6.314 4 6.448 3.84 L 6.932 3.262 C 7.033 3.141 7.25 3.073 7.453 3.068 L 7.452 3.068 Z"/>
 </g>
</svg>
